X:0
T:Soor Plooms in Galashiels
G:song
M:4/4
L:1/8
Q:1/4=104
K:GMix
GA|B3c  B2ge|dBAG     A2B>A|G3A  BABd|e3d  B2dg|
   edBe dBAd|BAGB     A3B  |GABc degc|B2G2 G2 :|
d2|efga g2G2|g2 de/f/ e2dc |B2de f2gf|e4   d3d |
   efga g3G |gbag     e2dc |Bcde fagf|e4   d2d2|
   efga g3G |g2 de/f/ e2dc |BAB2 dBd2|ede2 f3a |
   geg2 ede2|dBd2     BAB2 |g2fe dBgc|B2G2 G2 |]

The tune uses the same gap-filling development as the Highland tunes quoted
before; the first part is major/mixolydian hexatonic, the second mixolydian.
But here the effect is much more dramatic and unmistakable, the natural f's
becoming more and more strongly accented up to the climax in bar 20.

Pipe tunes frequently use pentatonic or hexatonic scales of the types
described above.  Among the seven note modes, the commonest are the
mixolydian mode (for tunes written as ending on A) and the major mode
(tunes ending on D).

Most Scottish tunes tend to have the home note at the lower end of the
tune's range, with no more than one note below.  The mediaeval theorists
who invented the naming system for the 7-note modes classified tunes like
that as being in AUTHENTIC modes.  Some melodies of Gregorian chant have
a very limited range, to meet the lowest common denominator among the
monks' voices.  This is the same problem the bagpipe faces with its nine-
note scale; the only modes that have a tonal centre in two octaves are
the A-final ones.  Unlike most major-mode tunes, D major tunes for the pipes
have only one home note, in the middle of the range, rather than two an
octave apart.  The mediaeval theorists described tunes like this as being
in PLAGAL modes; each of the seven modes they recognized had both authentic
and plagal forms, with different ranges.  (In my examples of hexatonic
major/mixolydian tunes, "The Smith's a Gallant Fireman" is authentic;
"Braw, Braw Lads of Galla Water" and "Haste to the Wedding" are plagal).
This distinction vanishes completely with the fiddle; tunes predating the
fiddle were often adapted by fiddlers with the range greatly extended.
Major-key tunes that don't fall into either the authentic or plagal forms
drive whistle players nuts:

